X: 1
T: Dusty Rhodes
M: 4/4
L: 1/8
R: reel
K: Dmaj
D2z2 _E2z2|:EBBA B2BD|EBBA FGAF|EBBA B2Bc|d/d/dcd BAFA|
EBBA B2BD|EBBA FGAF|GBAG FdAF|GEF/E/D EDB,D:|
GBBA B2BA|GBdA FGAF|GBBA Bded|=cBAG F/E/DEF|
GBBA B2B/B/B|GBdB =cAFA|gdBd e=cAG|FGEF D=cBA:|
